X: 20703
T: Lundie's Dream
%R: air
B: James Oswald "The Caledonian Pocket Companion" v.2 p.70 #3
Z: 2019 John Chambers <jc:trillian.mit.edu>
N: Added missing bar line after bar 7
M: 2/4
L: 1/8
K: F
"_Slow"c |\
(f2 g)a | (c<A) (TG>F) | G2 (ag) | (fd)(cd) |\
(c<A) (TG>F) | c3 a | (ba)(gf) | (d<f)(c<A) |\
G2 (Ac) | d2 (fd) | (c<A) G>A | F3 :: G |\
A2 (GF) |
{AB}c2 BA | G3 A | (BA)(GF) |\
(GF)(GA) | c3 a | (bg)(af) |(gd)(fA) |\
G3 d | (cA)(ca) | (gf)(ga) | f3 (e/d/) |\
(c<A)(f<d) | (c<A) G>A | F3 :|


